X: 30204
T: Old Grey Gander, The
R: reel
M: 4/4
K: Adorian
EAAB c2 BA|BGGA BcdB|AEAB cdef|gedB c2 BA|
EAAB c2 BA|BGGA BcdB|AEAB cdef|gedB BA A2||
a2 ea a2 ge|d2 BG Bd d2|a2 ea a2 ba|gedB BA A2|
a2 ea a2 ge|d2 BG Bd d2|EAAB cdef|gedB BA A2||

